X:1
T:[ID 5-24]
T:[ID 5-24]
T:Bezeichnung standardisiert: Holl\"andisch Hollendisch
T:Urheber unbekannt Datum in der hier transkribierten schriftlichen Quelle: 1792
C:Urheber unbekannt
C:Datum in der hier transkribierten schriftlichen Quelle: 1792
L:1/8
M:4/4
K:G
V:1 treble 
V:1
 G2 | G2 B2 d2 g2 | g2 fe d2 g2 | e2 a2 g2 f2 | gfga g2 G2 | GABc d2 g2 | f2 g2 a2 g2 | %7
 f2 ed ege^c | d6 :: d2 | d3 e d2 c2 | B4 B4 | e2 ef gfge | f2 B2 B2 f2 | g2 f2 g2 f2 | %15
 g2 a2 b2 a2 | g4 Tf4 | e6 f2 | g2 d2 d2 c2 | B4 G4 | cdcB A2 Bc | d2 D2 D2 d2 | d2 dc B2 e2 | %23
 e2 d2 d2 g2 | e2 a2 g2 f2 | g4 g2 :| %26

